X: 14316
T: Gallagher's Frolics
R: jig
M: 6/8
K: Edorian
|:~E3 GFE|~B3 dBA|~B3 ~A3|~G3 FED|
~E3 GFE|~B3 dBA|BAG FAF|GED E2B:|
|:e2f gfe|~g3 bge|d2e ~f3|fag fed|
~e3 efe|dfe dBA|BAG FAF|GED E2B:|

